X: 297
T: the Smile of Nancy Barlow
B: O'Neill's 297
N: "Lively"
N: "Collected by Ennis"
Z: 1997 by John Chambers <jc@trillian.mit.edu>
M: 6/8
L: 1/8
K:Gm
G/F/ \
| (D2G) (G2A) | B3 (A2G) | (F2A) (c2A) | (G2F) D2c \
| (d2f) (c2d) | B3 (A2G) | (F2A) (c2A) | G2G G2 ||
|| c \
| d2d (d2B) | c3 (f2A) | (G2A) (B2A) | (GF2) D2C \
| (D2G) (G2A) | B3 (A2G) | (F2A) (c2A) | G2G G2(G/F/) ||
|| (D2G) (G2A) | F3 FGA | (B2G) (A2F) | (G2F) D2c \
| (d2f) (c2d) | B3 (A2G) | (F2A) (c2A) | G2G G2 ||


